X: 29435
T: Night Before Larry Was Stretched, The
R: slip jig
M: 9/8
K: Gminor
|:BAG GDG G2 B|AGF FCF ABc|BAG GDG G2 B|ABc cdB AGF:|
|:Bcd ded f2d|Bcd def ecA|Bcd ded d2d|edc cdB AGF:|

